build/fonts/cisco/masgateway.svg

<?xml version="1.0" encoding="UTF-8" standalone="no"?>
<svg
   xmlns:dc="http://purl.org/dc/elements/1.1/"
   xmlns:cc="http://creativecommons.org/ns#"
   xmlns:rdf="http://www.w3.org/1999/02/22-rdf-syntax-ns#"
   xmlns:svg="http://www.w3.org/2000/svg"
   xmlns="http://www.w3.org/2000/svg"
   viewBox="0 0 35 37.5"
   height="37.5"
   width="35"
   xml:space="preserve"
   version="1.1"
   id="svg2"><metadata
     id="metadata8"><rdf:RDF><cc:Work
         rdf:about=""><dc:format>image/svg+xml</dc:format><dc:type
           rdf:resource="http://purl.org/dc/dcmitype/StillImage" /></cc:Work></rdf:RDF></metadata><defs
     id="defs6"><clipPath
       id="clipPath18"
       clipPathUnits="userSpaceOnUse"><path
         id="path20"
         d="M 0,10 0,296 280,296 280,10 0,10 Z" /></clipPath></defs><g
     transform="matrix(1.25,0,0,-1.25,0,37.5)"
     id="g10"><g
       transform="scale(0.1,0.1)"
       id="g12"><g
         id="g14"><g
           clip-path="url(#clipPath18)"
           id="g16"><path
             id="path22"
             style="fill:#087fbf;fill-opacity:1;fill-rule:nonzero;stroke:none"
             d="m 5.30859,14.5703 226.762,0 0,230.742 -226.762,0 0,-230.742 z" /><path
             id="path24"
             style="fill:none;stroke:#ffffff;stroke-width:4;stroke-linecap:butt;stroke-linejoin:miter;stroke-miterlimit:4;stroke-dasharray:none;stroke-opacity:1"
             d="m 5.30859,14.5703 226.762,0 0,230.742 -226.762,0 0,-230.742 z" /><path
             id="path26"
             style="fill:#087fbf;fill-opacity:1;fill-rule:nonzero;stroke:none"
             d="m 278.012,291.25 -45.942,-45.859 -226.99187,0 49.02347,45.859 223.9104,0" /><path
             id="path28"
             style="fill:none;stroke:#ffffff;stroke-width:4;stroke-linecap:butt;stroke-linejoin:miter;stroke-miterlimit:4;stroke-dasharray:none;stroke-opacity:1"
             d="m 278.012,291.25 -45.942,-45.859 -226.99187,0 49.02347,45.859 223.9104,0 z" /><path
             id="path30"
             style="fill:#087fbf;fill-opacity:1;fill-rule:nonzero;stroke:none"
             d="m 278.281,70.1602 0,220.9418 -46.211,-45.942 0,-229.6873 46.211,54.6875" /><path
             id="path32"
             style="fill:none;stroke:#ffffff;stroke-width:4;stroke-linecap:butt;stroke-linejoin:miter;stroke-miterlimit:4;stroke-dasharray:none;stroke-opacity:1"
             d="m 278.281,70.1602 0,220.9418 -46.211,-45.942 0,-229.6873 46.211,54.6875 z" /><path
             id="path34"
             style="fill:#ffffff;fill-opacity:1;fill-rule:nonzero;stroke:none"
             d="m 142.031,71.1719 18.989,18.9883 -28.559,8.3203 9.57,-27.3086" /><path
             id="path36"
             style="fill:none;stroke:#ffffff;stroke-width:8;stroke-linecap:butt;stroke-linejoin:miter;stroke-miterlimit:3.8599999;stroke-dasharray:none;stroke-opacity:1"
             d="M 144.488,88.7109 178.48,54.6914" /><path
             id="path38"
             style="fill:#ffffff;fill-opacity:1;fill-rule:nonzero;stroke:none"
             d="m 38.7109,170.352 18.9883,18.988 -28.5586,8.32 9.5703,-27.308" /><path
             id="path40"
             style="fill:none;stroke:#ffffff;stroke-width:8;stroke-linecap:butt;stroke-linejoin:miter;stroke-miterlimit:3.8599999;stroke-dasharray:none;stroke-opacity:1"
             d="M 41.1719,187.852 75.1602,153.871" /><path
             id="path42"
             style="fill:#ffffff;fill-opacity:1;fill-rule:nonzero;stroke:none"
             d="m 47.4219,113.633 0,26.84 -26.0938,-14.301 26.0938,-12.539" /><path
             id="path44"
             style="fill:none;stroke:#ffffff;stroke-width:8;stroke-linecap:butt;stroke-linejoin:miter;stroke-miterlimit:3.8599999;stroke-dasharray:none;stroke-opacity:1"
             d="m 36.7617,127.781 48.0391,-0.039" /><path
             id="path46"
             style="fill:#ffffff;fill-opacity:1;fill-rule:nonzero;stroke:none"
             d="m 142.031,181.293 18.989,-18.98 -28.559,-8.321 9.57,27.301" /><path
             id="path48"
             style="fill:none;stroke:#ffffff;stroke-width:8;stroke-linecap:butt;stroke-linejoin:miter;stroke-miterlimit:3.8599999;stroke-dasharray:none;stroke-opacity:1"
             d="m 144.488,163.75 33.992,34.031" /><path
             id="path50"
             style="fill:#ffffff;fill-opacity:1;fill-rule:nonzero;stroke:none"
             d="M 38.7109,82.1523 57.6992,63.1719 29.1406,54.8516 38.7109,82.1523" /><path
             id="path52"
             style="fill:none;stroke:#ffffff;stroke-width:8;stroke-linecap:butt;stroke-linejoin:miter;stroke-miterlimit:3.8599999;stroke-dasharray:none;stroke-opacity:1"
             d="M 41.1719,64.6094 75.1602,98.6016" /><path
             id="path54"
             style="fill:#087fbf;fill-opacity:1;fill-rule:nonzero;stroke:none"
             d="m 74.6094,98.4023 52.9688,0 0,56.6406 -52.9688,0 0,-56.6406 z" /><path
             id="path56"
             style="fill:none;stroke:#ffffff;stroke-width:4;stroke-linecap:butt;stroke-linejoin:miter;stroke-miterlimit:4;stroke-dasharray:none;stroke-opacity:1"
             d="m 74.6094,98.4023 52.9688,0 0,56.6406 -52.9688,0 0,-56.6406 z" /><path
             id="path58"
             style="fill:#087fbf;fill-opacity:1;fill-rule:nonzero;stroke:none"
             d="m 171.09,43.75 43.4805,0 0,44.9219 -43.4805,0 0,-44.9219 z" /><path
             id="path60"
             style="fill:none;stroke:#ffffff;stroke-width:4;stroke-linecap:butt;stroke-linejoin:miter;stroke-miterlimit:4;stroke-dasharray:none;stroke-opacity:1"
             d="m 171.09,43.75 43.4805,0 0,44.9219 -43.4805,0 0,-44.9219 z" /><path
             id="path62"
             style="fill:#087fbf;fill-opacity:1;fill-rule:nonzero;stroke:none"
             d="m 171.09,164.813 43.4805,0 0,44.918 -43.4805,0 0,-44.918 z" /><path
             id="path64"
             style="fill:none;stroke:#ffffff;stroke-width:4;stroke-linecap:butt;stroke-linejoin:miter;stroke-miterlimit:4;stroke-dasharray:none;stroke-opacity:1"
             d="m 171.09,164.813 43.4805,0 0,44.918 -43.4805,0 0,-44.918 z" /></g></g></g></g></svg>

<svg xmlns="http://www.w3.org/2000/svg" viewBox="0 0 35 37.5" height="37.5" width="35"><defs><clipPath id="a"><path d="M0 10v286h280V10H0z"/></clipPath></defs><g clip-path="url(#a)" transform="matrix(.13 0 0 -.13 0 37.5)"><path d="M5.309 14.57H232.07v230.742H5.309V14.57z" fill="#087fbf"/><path d="M5.309 14.57H232.07v230.742H5.309V14.57z" fill="none" stroke="#fff" stroke-width="4"/><path d="M278.012 291.25l-45.942-45.859H5.078l49.024 45.859h223.91" fill="#087fbf"/><path d="M278.012 291.25l-45.942-45.859H5.078l49.024 45.859h223.91z" fill="none" stroke="#fff" stroke-width="4"/><path d="M278.281 70.16v220.942L232.07 245.16V15.473l46.211 54.687" fill="#087fbf"/><path d="M278.281 70.16v220.942L232.07 245.16V15.473l46.211 54.687z" fill="none" stroke="#fff" stroke-width="4"/><path d="M142.031 71.172L161.02 90.16l-28.559 8.32 9.57-27.308" fill="#fff"/><path d="M144.488 88.71l33.992-34.019" fill="none" stroke="#fff" stroke-width="8" stroke-miterlimit="3.86"/><path d="M38.71 170.352L57.7 189.34l-28.56 8.32 9.57-27.308" fill="#fff"/><path d="M41.172 187.852l33.988-33.981" fill="none" stroke="#fff" stroke-width="8" stroke-miterlimit="3.86"/><path d="M47.422 113.633v26.84l-26.094-14.301 26.094-12.539" fill="#fff"/><path d="M36.762 127.781l48.039-.039" fill="none" stroke="#fff" stroke-width="8" stroke-miterlimit="3.86"/><path d="M142.031 181.293l18.989-18.98-28.559-8.321 9.57 27.301" fill="#fff"/><path d="M144.488 163.75l33.992 34.031" fill="none" stroke="#fff" stroke-width="8" stroke-miterlimit="3.86"/><path d="M38.71 82.152l18.99-18.98-28.56-8.32 9.57 27.3" fill="#fff"/><path d="M41.172 64.61L75.16 98.601" fill="none" stroke="#fff" stroke-width="8" stroke-miterlimit="3.86"/><path d="M74.61 98.402h52.968v56.64H74.61v-56.64z" fill="#087fbf"/><path d="M74.61 98.402h52.968v56.64H74.61v-56.64z" fill="none" stroke="#fff" stroke-width="4"/><path d="M171.09 43.75h43.48v44.922h-43.48V43.75z" fill="#087fbf"/><path d="M171.09 43.75h43.48v44.922h-43.48V43.75z" fill="none" stroke="#fff" stroke-width="4"/><path d="M171.09 164.813h43.48v44.918h-43.48v-44.918z" fill="#087fbf"/><path d="M171.09 164.813h43.48v44.918h-43.48v-44.918z" fill="none" stroke="#fff" stroke-width="4"/></g></svg>
